svg/chart_multiple.svg

<svg xmlns="http://www.w3.org/2000/svg" viewBox="0 0 24 24"><path d="M22 16v2H6V2h2v11.57l5.71-9 3.16 2.11 2.42-2.42 1.42 1.42-3.58 3.61-2.84-1.89L8.82 16M4 20V4H2v18h20v-2Z"/></svg>

<?xml version="1.0" encoding="UTF-8"?><!DOCTYPE svg PUBLIC "-//W3C//DTD SVG 1.1//EN" "http://www.w3.org/Graphics/SVG/1.1/DTD/svg11.dtd"><svg xmlns="http://www.w3.org/2000/svg" xmlns:xlink="http://www.w3.org/1999/xlink" version="1.1" id="mdi-chart-multiple" width="24" height="24" viewBox="0 0 24 24"><path d="M22 16V18H6V2H8V13.57L13.71 4.57L16.87 6.68L19.29 4.26L20.71 5.68L17.13 9.29L14.29 7.4L8.82 16M4 20V4H2V22H22V20Z" /></svg>
